X:368
T:Rory McLeod
S:Various, inc. Derek Hoy, Edinburgh
Z:Nigel Gatherer
L:1/8
M:6/8
K:A
c2A cee | fee faa | c2A cee | fec cBB |
c2A cee | fee faa | fec ecB | cAA A3 :|
cee fee | aee fee | cee fee | aee eff |
cee fee | aee fee | fec ecB | cAA A3 :|
Acc cdd | dcc c2B | Acc cdd | dcc cBB |
Acc cdd | dcc c2e | fec ecB | cAA A3 :|
faa aff | fee e2c | cBB Bce | fee e3  |
faa aff | fee e2e | fec ecB | cAA A3 :|

